devices/symbolic/media-optical-video-symbolic.svg

<svg xmlns="http://www.w3.org/2000/svg" viewBox="0 0 16 16">
  <defs id="defs3051">
    <style type="text/css" id="current-color-scheme">
      .ColorScheme-Text {
        color:#4d4d4d;
      }
      </style>
  </defs>
 <path 
     style="fill:#bebebe;fill-opacity:1;stroke:none" 
     class="ColorScheme-Text"
     d="M 8 0.5 C 3.845 0.5 0.5 3.845 0.5 8 C 0.5 12.155 3.845 15.5 8 15.5 C 12.155 15.5 15.5 12.155 15.5 8 C 15.5 3.845 12.155 0.5 8 0.5 z M 10.880859 6.125 C 11.230155 6.125 11.513672 6.4065631 11.513672 6.7558594 C 11.513672 7.1051559 11.230162 7.390625 10.880859 7.390625 C 10.531563 7.390625 10.248045 7.1051559 10.248047 6.7558594 C 10.248046 6.4065631 10.531563 6.125 10.880859 6.125 z M 12.324219 6.125 C 12.673453 6.125 12.958984 6.4065631 12.958984 6.7558594 C 12.958984 7.1051559 12.673453 7.390625 12.324219 7.390625 C 11.974948 7.390625 11.693359 7.1051559 11.693359 6.7558594 C 11.693359 6.4065631 11.974948 6.125 12.324219 6.125 z M 8 7.0625 C 8.5193741 7.0625 8.9375 7.4806259 8.9375 8 C 8.9375 8.5193741 8.5193741 8.9375 8 8.9375 C 7.4806259 8.9375 7.0625 8.5193741 7.0625 8 C 7.0625 7.4806259 7.4806259 7.0625 8 7.0625 z M 10.484375 7.6152344 L 12.720703 7.6152344 C 12.850932 7.6152344 12.955078 7.7450778 12.955078 7.90625 L 12.955078 8.1660156 C 12.955918 8.1828906 12.971226 8.2472871 13.138672 8.1894531 L 14.058594 7.8691406 C 14.087314 7.8577126 14.150371 7.8450751 14.150391 7.9394531 L 14.150391 9.546875 C 14.150391 9.617366 14.112485 9.620138 14.078125 9.609375 L 13.125 9.3828125 C 12.969156 9.3458375 12.955791 9.392488 12.955078 9.40625 L 12.955078 9.5839844 C 12.955078 9.7450928 12.850932 9.875 12.720703 9.875 L 10.484375 9.875 C 10.354208 9.875 10.248047 9.7450928 10.248047 9.5839844 L 10.248047 7.90625 C 10.248047 7.7450844 10.354208 7.6152344 10.484375 7.6152344 z "
     />
</svg>

<svg xmlns="http://www.w3.org/2000/svg" viewBox="0 0 16 16">
  <path fill="#bebebe" d="M8 .5A7.484 7.484 0 0 0 .5 8c0 4.155 3.345 7.5 7.5 7.5 4.155 0 7.5-3.345 7.5-7.5C15.5 3.845 12.155.5 8 .5zm2.88 5.625a.632.632 0 1 1 .001 1.266.635.635 0 0 1-.633-.635c0-.35.284-.631.633-.631zm1.444 0a.633.633 0 1 1 .004 1.266.633.633 0 0 1-.004-1.266zM8 7.063c.52 0 .938.418.938.937 0 .52-.419.938-.938.938A.935.935 0 0 1 7.062 8c0-.52.419-.938.938-.938zm2.484.552h2.237c.13 0 .234.13.234.291v.26c0 .017.016.081.184.023l.92-.32c.028-.011.091-.024.091.07v1.608c0 .07-.038.073-.072.062l-.953-.226c-.156-.037-.17.01-.17.023v.178c0 .161-.104.291-.234.291h-2.237c-.13 0-.236-.13-.236-.291V7.906c0-.16.106-.29.236-.29z"/>
</svg>
